Newaita-dark/apps/24/com.github.georgekap1an.chores.svg

<svg height="24" viewBox="0 0 24 24" width="24" xmlns="http://www.w3.org/2000/svg" xmlns:xlink="http://www.w3.org/1999/xlink"><linearGradient id="a" gradientUnits="userSpaceOnUse" x1="11.90739" x2="11.90739" y1="21.02545225" y2="22.01773525002"><stop offset="0" stop-opacity=".27451"/><stop offset="1" stop-opacity="0"/></linearGradient><linearGradient id="b"><stop offset="0" stop-opacity=".313726"/><stop offset=".222222" stop-opacity=".27451"/><stop offset="1" stop-opacity="0"/></linearGradient><radialGradient id="c" cx="450.908936" cy="189.579361" gradientTransform="matrix(.00000013 -.0585994 -.105479 -.00000008 37.609564 47.696499)" gradientUnits="userSpaceOnUse" r="21.166656" xlink:href="#b"/><radialGradient id="d" cx="450.908936" cy="189.579361" gradientTransform="matrix(-.00000013 .0585994 .105479 .00000008 -13.794787 -5.64561)" gradientUnits="userSpaceOnUse" r="21.166656" xlink:href="#b"/><radialGradient id="e" cx="450.908936" cy="189.579361" gradientTransform="matrix(-.00000013 -.0585994 .105479 -.00000008 -13.794787 47.696499)" gradientUnits="userSpaceOnUse" r="21.166656" xlink:href="#b"/><radialGradient id="f" cx="450.908936" cy="189.579361" gradientTransform="matrix(.00000013 .0585994 -.105479 .00000008 37.609563 -5.64561)" gradientUnits="userSpaceOnUse" r="21.166656" xlink:href="#b"/><linearGradient id="g" gradientTransform="matrix(.0565122 0 0 .163059 -4.39051 25.231011)" gradientUnits="userSpaceOnUse" x1="323.513245" x2="323.513245" y1="-141.414581" y2="-25.791676"><stop offset="0" stop-color="#8d6e63"/><stop offset="1" stop-color="#795548"/></linearGradient><linearGradient id="h" gradientUnits="userSpaceOnUse" x1="254" x2="254" y1="212.333328" y2="-115.75"><stop offset="0" stop-color="#e0e0e0"/><stop offset="1" stop-color="#eee"/></linearGradient><linearGradient id="i" gradientUnits="userSpaceOnUse" x1="11.90736" x2="11.90736" y1="21.02539814717" y2="2.17207777507"><stop offset="0" stop-color="#424242"/><stop offset="1" stop-color="#616161"/></linearGradient><path d="m5.953125 21.027344h11.90625v.992187h-11.90625zm0 0" fill="url(#a)"/><path d="m17.859375 21.027344h1.984375v-.996094h-1.984375zm0 0" fill="url(#c)"/><path d="m5.953125 21.027344h-1.984375v.992187h1.984375zm0 0" fill="url(#d)"/><path d="m5.953125 21.027344h-1.984375v-.996094h1.984375zm0 0" fill="url(#e)"/><path d="m17.859375 21.027344h1.984375v.992187h-1.984375zm0 0" fill="url(#f)"/><path d="m4.960938 4.652344h13.890624c.550782 0 .992188.445312.992188.992187v14.386719c0 .550781-.441406.996094-.992188.996094h-13.890624c-.546876 0-.992188-.445313-.992188-.996094v-14.386719c0-.546875.445312-.992187.992188-.992187zm0 0" fill="url(#g)"/><path d="m4.960938 4.722656c-.550782 0-.992188.441406-.992188.992188v.125c0-.550782.441406-.992188.992188-.992188h13.890624c.550782 0 .992188.441406.992188.992188v-.125c0-.550782-.441406-.992188-.992188-.992188zm0 0" fill="#fff" fill-opacity=".392157"/><path d="m4.960938 20.96875c-.550782 0-.992188-.441406-.992188-.992188v-.125c0 .550782.441406.992188.992188.992188h13.890624c.550782 0 .992188-.441406.992188-.992188v.125c0 .550782-.441406.992188-.992188.992188zm0 0" fill-opacity=".196078"/><path d="m105.823228-115.759477h296.305037c11.748878 0 21.164646 9.499093 21.164646 21.164646v306.88736c0 11.748878-9.415768 21.247971-21.164646 21.247971h-296.305037c-11.665553 0-21.164646-9.499093-21.164646-21.247971v-306.88736c0-11.665553 9.499093-21.164646 21.164646-21.164646zm0 0" fill="none" stroke="#212121" stroke-linecap="round" stroke-width="3" transform="matrix(.0468795 0 0 .0468795 0 10.079087)"/><path d="m126.987873-105.177154h253.975747c5.916101 0 10.582323 4.749546 10.582323 10.582323v296.305037c0 5.916102-4.666222 10.582323-10.582323 10.582323h-253.975747c-5.832776 0-10.582323-4.666221-10.582323-10.582323v-296.305037c0-5.832777 4.749547-10.582323 10.582323-10.582323zm0 0" fill="url(#h)" stroke="#212121" stroke-linecap="round" stroke-linejoin="round" stroke-width="3" transform="matrix(.0468795 0 0 .0468795 0 10.079087)"/><path d="m8.929688 2.171875c-.273438 0-.496094.222656-.496094.496094v.496093h-1.488282c-.273437 0-.496093.222657-.496093.496094v1.984375c0 .273438.222656.496094.496093.496094h9.921876c.277343 0 .496093-.222656.496093-.496094v-1.984375c0-.273437-.21875-.496094-.496093-.496094h-1.488282v-.496093c0-.273438-.21875-.496094-.496094-.496094zm0 0" fill="url(#i)"/><path d="m6.449219 5.644531v.496094c0 .277344.222656.496094.496093.496094h9.921876c.277343 0 .496093-.21875.496093-.496094v-.496094c0 .273438-.21875.496094-.496093.496094h-9.921876c-.273437 0-.496093-.222656-.496093-.496094zm0 0" fill-opacity=".235294"/><path d="m8.929688 2.171875c-.273438 0-.496094.222656-.496094.496094v.1875c0-.277344.222656-.496094.496094-.496094h5.953124c.277344 0 .496094.21875.496094.496094v-.1875c0-.273438-.21875-.496094-.496094-.496094zm-1.984376.992187c-.273437 0-.496093.222657-.496093.496094v.1875c0-.277344.222656-.496094.496093-.496094h1.488282v-.1875zm8.433594 0v.1875h1.488282c.277343 0 .496093.21875.496093.496094v-.1875c0-.273437-.21875-.496094-.496093-.496094zm0 0" fill="#fff" fill-opacity=".313726"/><path d="m719.931288 175.101398c-22.04514 0-39.996183 17.951043-39.996183 39.996183v39.996182h-119.988548c-22.04514 0-39.996182 17.951043-39.996182 39.996183v159.984731c0 22.04514 17.951042 39.996182 39.996182 39.996182h799.923653c22.360071 0 39.996183-17.951042 39.996183-39.996182v-159.984731c0-22.04514-17.636112-39.996183-39.996183-39.996183h-119.988548v-39.996182c0-22.04514-17.636112-39.996183-39.996182-39.996183zm0 0" fill="none" stroke="#212121" stroke-linecap="round" stroke-linejoin="round" stroke-width="11.338583" transform="scale(.0124035)"/><path d="m5.457031 19.535156v.25c0 .273438.222657.496094.496094.496094h11.90625c.277344 0 .496094-.222656.496094-.496094v-.25c0 .277344-.21875.496094-.496094.496094h-11.90625c-.273437 0-.496094-.21875-.496094-.496094zm0 0" fill-opacity=".235294"/><g fill="#78909c"><path d="m9.425781 7.628906h7.441407c.277343 0 .496093.222656.496093.496094s-.21875.496094-.496093.496094h-7.441407c-.273437 0-.496093-.222656-.496093-.496094s.222656-.496094.496093-.496094zm0 0"/><path d="m9.425781 10.605469h7.441407c.277343 0 .496093.222656.496093.496093 0 .273438-.21875.496094-.496093.496094h-7.441407c-.273437 0-.496093-.222656-.496093-.496094 0-.273437.222656-.496093.496093-.496093zm0 0"/><path d="m9.425781 13.582031h7.441407c.277343 0 .496093.222657.496093.496094s-.21875.496094-.496093.496094h-7.441407c-.273437 0-.496093-.222657-.496093-.496094s.222656-.496094.496093-.496094zm0 0"/><path d="m9.425781 16.558594h7.441407c.277343 0 .496093.207031.496093.460937v.074219c0 .253906-.21875.457031-.496093.457031h-7.441407c-.273437 0-.496093-.203125-.496093-.457031v-.074219c0-.253906.222656-.460937.496093-.460937zm0 0"/><path d="m7.441406 10.109375c-.550781 0-.992187.445313-.992187.992187 0 .550782.441406.992188.992187.992188.550782 0 .992188-.441406.992188-.992188 0-.546874-.441406-.992187-.992188-.992187zm0 .496094c.277344 0 .496094.222656.496094.496093 0 .277344-.21875.496094-.496094.496094-.273437 0-.496094-.21875-.496094-.496094 0-.273437.222657-.496093.496094-.496093zm0 0"/><path d="m7.441406 13.085938c-.550781 0-.992187.445312-.992187.992187 0 .550781.441406.992187.992187.992187.550782 0 .992188-.441406.992188-.992187 0-.546875-.441406-.992187-.992188-.992187zm0 .496093c.277344 0 .496094.222657.496094.496094 0 .277344-.21875.496094-.496094.496094-.273437 0-.496094-.21875-.496094-.496094 0-.273437.222657-.496094.496094-.496094zm0 0"/><path d="m7.441406 16.0625c-.550781 0-.992187.445312-.992187.992188 0 .550781.441406.992187.992187.992187.550782 0 .992188-.441406.992188-.992187 0-.546876-.441406-.992188-.992188-.992188zm0 .496094c.277344 0 .496094.222656.496094.496094 0 .277343-.21875.496093-.496094.496093-.273437 0-.496094-.21875-.496094-.496093 0-.273438.222657-.496094.496094-.496094zm0 0"/><path d="m7.441406 7.132812c-.550781 0-.992187.441407-.992187.992188s.441406.992188.992187.992188c.550782 0 .992188-.441407.992188-.992188s-.441406-.992188-.992188-.992188zm0 .496094c.277344 0 .496094.222656.496094.496094 0 .277344-.21875.496094-.496094.496094-.273437 0-.496094-.21875-.496094-.496094 0-.273438.222657-.496094.496094-.496094zm0 0"/></g><path d="m137.570196-57.515039 21.164646 21.164645 26.497469-31.746968" fill="none" stroke="#f44336" stroke-linecap="round" stroke-linejoin="round" stroke-width="12" transform="matrix(.0468795 0 0 .0468795 0 10.079087)"/><path d="m137.570196 5.978898 21.164646 21.164645 26.497469-31.746968" fill="none" stroke="#f44336" stroke-linecap="round" stroke-linejoin="round" stroke-width="12" transform="matrix(.0468795 0 0 .0468795 0 10.079087)"/></svg>

<?xml version="1.0" encoding="UTF-8"?>
<svg xmlns="http://www.w3.org/2000/svg" xmlns:xlink="http://www.w3.org/1999/xlink" width="24px" height="24px" viewBox="0 0 24 24" version="1.1">
<defs>
<linearGradient id="linear0" gradientUnits="userSpaceOnUse" x1="254" y1="233.5" x2="254" y2="254.666672" gradientTransform="matrix(0.0468795,0,0,0.0468795,-0.0000028613,10.079089)">
<stop offset="0" style="stop-color:rgb(0%,0%,0%);stop-opacity:0.27451;"/>
<stop offset="1" style="stop-color:rgb(0%,0%,0%);stop-opacity:0;"/>
</linearGradient>
<radialGradient id="radial0" gradientUnits="userSpaceOnUse" cx="450.908936" cy="189.579361" fx="450.908936" fy="189.579361" r="21.166656" gradientTransform="matrix(0.000000130628,-0.0585994,-0.105479,-0.0000000761539,37.609564,47.696499)">
<stop offset="0" style="stop-color:rgb(0%,0%,0%);stop-opacity:0.313726;"/>
<stop offset="0.222222" style="stop-color:rgb(0%,0%,0%);stop-opacity:0.27451;"/>
<stop offset="1" style="stop-color:rgb(0%,0%,0%);stop-opacity:0;"/>
</radialGradient>
<radialGradient id="radial1" gradientUnits="userSpaceOnUse" cx="450.908936" cy="189.579361" fx="450.908936" fy="189.579361" r="21.166656" gradientTransform="matrix(-0.000000130628,0.0585994,0.105479,0.0000000761539,-13.794787,-5.64561)">
<stop offset="0" style="stop-color:rgb(0%,0%,0%);stop-opacity:0.313726;"/>
<stop offset="0.222222" style="stop-color:rgb(0%,0%,0%);stop-opacity:0.27451;"/>
<stop offset="1" style="stop-color:rgb(0%,0%,0%);stop-opacity:0;"/>
</radialGradient>
<radialGradient id="radial2" gradientUnits="userSpaceOnUse" cx="450.908936" cy="189.579361" fx="450.908936" fy="189.579361" r="21.166656" gradientTransform="matrix(-0.000000130628,-0.0585994,0.105479,-0.0000000761539,-13.794787,47.696499)">
<stop offset="0" style="stop-color:rgb(0%,0%,0%);stop-opacity:0.313726;"/>
<stop offset="0.222222" style="stop-color:rgb(0%,0%,0%);stop-opacity:0.27451;"/>
<stop offset="1" style="stop-color:rgb(0%,0%,0%);stop-opacity:0;"/>
</radialGradient>
<radialGradient id="radial3" gradientUnits="userSpaceOnUse" cx="450.908936" cy="189.579361" fx="450.908936" fy="189.579361" r="21.166656" gradientTransform="matrix(0.000000130628,0.0585994,-0.105479,0.0000000761539,37.609563,-5.64561)">
<stop offset="0" style="stop-color:rgb(0%,0%,0%);stop-opacity:0.313726;"/>
<stop offset="0.222222" style="stop-color:rgb(0%,0%,0%);stop-opacity:0.27451;"/>
<stop offset="1" style="stop-color:rgb(0%,0%,0%);stop-opacity:0;"/>
</radialGradient>
<linearGradient id="linear1" gradientUnits="userSpaceOnUse" x1="323.513245" y1="-141.414581" x2="323.513245" y2="-25.791676" gradientTransform="matrix(0.0565122,0,0,0.163059,-4.39051,25.231011)">
<stop offset="0" style="stop-color:rgb(55.29412%,43.137255%,38.82353%);stop-opacity:1;"/>
<stop offset="1" style="stop-color:rgb(47.450981%,33.333334%,28.235295%);stop-opacity:1;"/>
</linearGradient>
<linearGradient id="linear2" gradientUnits="userSpaceOnUse" x1="254" y1="212.333328" x2="254" y2="-115.75" gradientTransform="matrix(1,0,0,1,0,0)">
<stop offset="0" style="stop-color:rgb(87.843138%,87.843138%,87.843138%);stop-opacity:1;"/>
<stop offset="1" style="stop-color:rgb(93.333334%,93.333334%,93.333334%);stop-opacity:1;"/>
</linearGradient>
<linearGradient id="linear3" gradientUnits="userSpaceOnUse" x1="960" y1="1695.118164" x2="960" y2="175.118134" gradientTransform="matrix(0.0124035,0,0,0.0124035,0,0.00000000000000141)">
<stop offset="0" style="stop-color:rgb(25.882354%,25.882354%,25.882354%);stop-opacity:1;"/>
<stop offset="1" style="stop-color:rgb(38.039216%,38.039216%,38.039216%);stop-opacity:1;"/>
</linearGradient>
</defs>
<g id="surface1">
<path style=" stroke:none;fill-rule:nonzero;fill:url(#linear0);" d="M 5.953125 21.027344 L 17.859375 21.027344 L 17.859375 22.019531 L 5.953125 22.019531 Z M 5.953125 21.027344 "/>
<path style=" stroke:none;fill-rule:nonzero;fill:url(#radial0);" d="M 17.859375 21.027344 L 19.84375 21.027344 L 19.84375 20.03125 L 17.859375 20.03125 Z M 17.859375 21.027344 "/>
<path style=" stroke:none;fill-rule:nonzero;fill:url(#radial1);" d="M 5.953125 21.027344 L 3.96875 21.027344 L 3.96875 22.019531 L 5.953125 22.019531 Z M 5.953125 21.027344 "/>
<path style=" stroke:none;fill-rule:nonzero;fill:url(#radial2);" d="M 5.953125 21.027344 L 3.96875 21.027344 L 3.96875 20.03125 L 5.953125 20.03125 Z M 5.953125 21.027344 "/>
<path style=" stroke:none;fill-rule:nonzero;fill:url(#radial3);" d="M 17.859375 21.027344 L 19.84375 21.027344 L 19.84375 22.019531 L 17.859375 22.019531 Z M 17.859375 21.027344 "/>
<path style=" stroke:none;fill-rule:nonzero;fill:url(#linear1);" d="M 4.960938 4.652344 L 18.851562 4.652344 C 19.402344 4.652344 19.84375 5.097656 19.84375 5.644531 L 19.84375 20.03125 C 19.84375 20.582031 19.402344 21.027344 18.851562 21.027344 L 4.960938 21.027344 C 4.414062 21.027344 3.96875 20.582031 3.96875 20.03125 L 3.96875 5.644531 C 3.96875 5.097656 4.414062 4.652344 4.960938 4.652344 Z M 4.960938 4.652344 "/>
<path style=" stroke:none;fill-rule:nonzero;fill:rgb(100%,100%,100%);fill-opacity:0.392157;" d="M 4.960938 4.722656 C 4.410156 4.722656 3.96875 5.164062 3.96875 5.714844 L 3.96875 5.839844 C 3.96875 5.289062 4.410156 4.847656 4.960938 4.847656 L 18.851562 4.847656 C 19.402344 4.847656 19.84375 5.289062 19.84375 5.839844 L 19.84375 5.714844 C 19.84375 5.164062 19.402344 4.722656 18.851562 4.722656 Z M 4.960938 4.722656 "/>
<path style=" stroke:none;fill-rule:nonzero;fill:rgb(0%,0%,0%);fill-opacity:0.196078;" d="M 4.960938 20.96875 C 4.410156 20.96875 3.96875 20.527344 3.96875 19.976562 L 3.96875 19.851562 C 3.96875 20.402344 4.410156 20.84375 4.960938 20.84375 L 18.851562 20.84375 C 19.402344 20.84375 19.84375 20.402344 19.84375 19.851562 L 19.84375 19.976562 C 19.84375 20.527344 19.402344 20.96875 18.851562 20.96875 Z M 4.960938 20.96875 "/>
<path style="fill:none;stroke-width:3;stroke-linecap:round;stroke-linejoin:miter;stroke:rgb(12.941177%,12.941177%,12.941177%);stroke-opacity:1;stroke-miterlimit:4;" d="M 105.823228 -115.759477 L 402.128265 -115.759477 C 413.877143 -115.759477 423.292911 -106.260384 423.292911 -94.594831 L 423.292911 212.292529 C 423.292911 224.041407 413.877143 233.5405 402.128265 233.5405 L 105.823228 233.5405 C 94.157675 233.5405 84.658582 224.041407 84.658582 212.292529 L 84.658582 -94.594831 C 84.658582 -106.260384 94.157675 -115.759477 105.823228 -115.759477 Z M 105.823228 -115.759477 " transform="matrix(0.0468795,0,0,0.0468795,0,10.079087)"/>
<path style="fill-rule:nonzero;fill:url(#linear2);stroke-width:3;stroke-linecap:round;stroke-linejoin:round;stroke:rgb(12.941177%,12.941177%,12.941177%);stroke-opacity:1;stroke-miterlimit:4;" d="M 126.987873 -105.177154 L 380.96362 -105.177154 C 386.879721 -105.177154 391.545943 -100.427608 391.545943 -94.594831 L 391.545943 201.710206 C 391.545943 207.626308 386.879721 212.292529 380.96362 212.292529 L 126.987873 212.292529 C 121.155097 212.292529 116.40555 207.626308 116.40555 201.710206 L 116.40555 -94.594831 C 116.40555 -100.427608 121.155097 -105.177154 126.987873 -105.177154 Z M 126.987873 -105.177154 " transform="matrix(0.0468795,0,0,0.0468795,0,10.079087)"/>
<path style=" stroke:none;fill-rule:nonzero;fill:url(#linear3);" d="M 8.929688 2.171875 C 8.65625 2.171875 8.433594 2.394531 8.433594 2.667969 L 8.433594 3.164062 L 6.945312 3.164062 C 6.671875 3.164062 6.449219 3.386719 6.449219 3.660156 L 6.449219 5.644531 C 6.449219 5.917969 6.671875 6.140625 6.945312 6.140625 L 16.867188 6.140625 C 17.144531 6.140625 17.363281 5.917969 17.363281 5.644531 L 17.363281 3.660156 C 17.363281 3.386719 17.144531 3.164062 16.867188 3.164062 L 15.378906 3.164062 L 15.378906 2.667969 C 15.378906 2.394531 15.160156 2.171875 14.882812 2.171875 Z M 8.929688 2.171875 "/>
<path style=" stroke:none;fill-rule:nonzero;fill:rgb(0%,0%,0%);fill-opacity:0.235294;" d="M 6.449219 5.644531 L 6.449219 6.140625 C 6.449219 6.417969 6.671875 6.636719 6.945312 6.636719 L 16.867188 6.636719 C 17.144531 6.636719 17.363281 6.417969 17.363281 6.140625 L 17.363281 5.644531 C 17.363281 5.917969 17.144531 6.140625 16.867188 6.140625 L 6.945312 6.140625 C 6.671875 6.140625 6.449219 5.917969 6.449219 5.644531 Z M 6.449219 5.644531 "/>
<path style=" stroke:none;fill-rule:nonzero;fill:rgb(100%,100%,100%);fill-opacity:0.313726;" d="M 8.929688 2.171875 C 8.65625 2.171875 8.433594 2.394531 8.433594 2.667969 L 8.433594 2.855469 C 8.433594 2.578125 8.65625 2.359375 8.929688 2.359375 L 14.882812 2.359375 C 15.160156 2.359375 15.378906 2.578125 15.378906 2.855469 L 15.378906 2.667969 C 15.378906 2.394531 15.160156 2.171875 14.882812 2.171875 Z M 6.945312 3.164062 C 6.671875 3.164062 6.449219 3.386719 6.449219 3.660156 L 6.449219 3.847656 C 6.449219 3.570312 6.671875 3.351562 6.945312 3.351562 L 8.433594 3.351562 L 8.433594 3.164062 Z M 15.378906 3.164062 L 15.378906 3.351562 L 16.867188 3.351562 C 17.144531 3.351562 17.363281 3.570312 17.363281 3.847656 L 17.363281 3.660156 C 17.363281 3.386719 17.144531 3.164062 16.867188 3.164062 Z M 15.378906 3.164062 "/>
<path style="fill:none;stroke-width:11.338583;stroke-linecap:round;stroke-linejoin:round;stroke:rgb(12.941177%,12.941177%,12.941177%);stroke-opacity:1;stroke-miterlimit:4;" d="M 719.931288 175.101398 C 697.886148 175.101398 679.935105 193.052441 679.935105 215.097581 L 679.935105 255.093763 L 559.946557 255.093763 C 537.901417 255.093763 519.950375 273.044806 519.950375 295.089946 L 519.950375 455.074677 C 519.950375 477.119817 537.901417 495.070859 559.946557 495.070859 L 1359.87021 495.070859 C 1382.230281 495.070859 1399.866393 477.119817 1399.866393 455.074677 L 1399.866393 295.089946 C 1399.866393 273.044806 1382.230281 255.093763 1359.87021 255.093763 L 1239.881662 255.093763 L 1239.881662 215.097581 C 1239.881662 193.052441 1222.24555 175.101398 1199.88548 175.101398 Z M 719.931288 175.101398 " transform="matrix(0.0124035,0,0,0.0124035,0,0)"/>
<path style=" stroke:none;fill-rule:nonzero;fill:rgb(0%,0%,0%);fill-opacity:0.235294;" d="M 5.457031 19.535156 L 5.457031 19.785156 C 5.457031 20.058594 5.679688 20.28125 5.953125 20.28125 L 17.859375 20.28125 C 18.136719 20.28125 18.355469 20.058594 18.355469 19.785156 L 18.355469 19.535156 C 18.355469 19.8125 18.136719 20.03125 17.859375 20.03125 L 5.953125 20.03125 C 5.679688 20.03125 5.457031 19.8125 5.457031 19.535156 Z M 5.457031 19.535156 "/>
<path style=" stroke:none;fill-rule:nonzero;fill:rgb(47.058824%,56.470591%,61.176473%);fill-opacity:1;" d="M 9.425781 7.628906 L 16.867188 7.628906 C 17.144531 7.628906 17.363281 7.851562 17.363281 8.125 C 17.363281 8.398438 17.144531 8.621094 16.867188 8.621094 L 9.425781 8.621094 C 9.152344 8.621094 8.929688 8.398438 8.929688 8.125 C 8.929688 7.851562 9.152344 7.628906 9.425781 7.628906 Z M 9.425781 7.628906 "/>
<path style=" stroke:none;fill-rule:nonzero;fill:rgb(47.058824%,56.470591%,61.176473%);fill-opacity:1;" d="M 9.425781 10.605469 L 16.867188 10.605469 C 17.144531 10.605469 17.363281 10.828125 17.363281 11.101562 C 17.363281 11.375 17.144531 11.597656 16.867188 11.597656 L 9.425781 11.597656 C 9.152344 11.597656 8.929688 11.375 8.929688 11.101562 C 8.929688 10.828125 9.152344 10.605469 9.425781 10.605469 Z M 9.425781 10.605469 "/>
<path style=" stroke:none;fill-rule:nonzero;fill:rgb(47.058824%,56.470591%,61.176473%);fill-opacity:1;" d="M 9.425781 13.582031 L 16.867188 13.582031 C 17.144531 13.582031 17.363281 13.804688 17.363281 14.078125 C 17.363281 14.351562 17.144531 14.574219 16.867188 14.574219 L 9.425781 14.574219 C 9.152344 14.574219 8.929688 14.351562 8.929688 14.078125 C 8.929688 13.804688 9.152344 13.582031 9.425781 13.582031 Z M 9.425781 13.582031 "/>
<path style=" stroke:none;fill-rule:nonzero;fill:rgb(47.058824%,56.470591%,61.176473%);fill-opacity:1;" d="M 9.425781 16.558594 L 16.867188 16.558594 C 17.144531 16.558594 17.363281 16.765625 17.363281 17.019531 L 17.363281 17.09375 C 17.363281 17.347656 17.144531 17.550781 16.867188 17.550781 L 9.425781 17.550781 C 9.152344 17.550781 8.929688 17.347656 8.929688 17.09375 L 8.929688 17.019531 C 8.929688 16.765625 9.152344 16.558594 9.425781 16.558594 Z M 9.425781 16.558594 "/>
<path style=" stroke:none;fill-rule:nonzero;fill:rgb(47.058824%,56.470591%,61.176473%);fill-opacity:1;" d="M 7.441406 10.109375 C 6.890625 10.109375 6.449219 10.554688 6.449219 11.101562 C 6.449219 11.652344 6.890625 12.09375 7.441406 12.09375 C 7.992188 12.09375 8.433594 11.652344 8.433594 11.101562 C 8.433594 10.554688 7.992188 10.109375 7.441406 10.109375 Z M 7.441406 10.605469 C 7.71875 10.605469 7.9375 10.828125 7.9375 11.101562 C 7.9375 11.378906 7.71875 11.597656 7.441406 11.597656 C 7.167969 11.597656 6.945312 11.378906 6.945312 11.101562 C 6.945312 10.828125 7.167969 10.605469 7.441406 10.605469 Z M 7.441406 10.605469 "/>
<path style=" stroke:none;fill-rule:nonzero;fill:rgb(47.058824%,56.470591%,61.176473%);fill-opacity:1;" d="M 7.441406 13.085938 C 6.890625 13.085938 6.449219 13.53125 6.449219 14.078125 C 6.449219 14.628906 6.890625 15.070312 7.441406 15.070312 C 7.992188 15.070312 8.433594 14.628906 8.433594 14.078125 C 8.433594 13.53125 7.992188 13.085938 7.441406 13.085938 Z M 7.441406 13.582031 C 7.71875 13.582031 7.9375 13.804688 7.9375 14.078125 C 7.9375 14.355469 7.71875 14.574219 7.441406 14.574219 C 7.167969 14.574219 6.945312 14.355469 6.945312 14.078125 C 6.945312 13.804688 7.167969 13.582031 7.441406 13.582031 Z M 7.441406 13.582031 "/>
<path style=" stroke:none;fill-rule:nonzero;fill:rgb(47.058824%,56.470591%,61.176473%);fill-opacity:1;" d="M 7.441406 16.0625 C 6.890625 16.0625 6.449219 16.507812 6.449219 17.054688 C 6.449219 17.605469 6.890625 18.046875 7.441406 18.046875 C 7.992188 18.046875 8.433594 17.605469 8.433594 17.054688 C 8.433594 16.507812 7.992188 16.0625 7.441406 16.0625 Z M 7.441406 16.558594 C 7.71875 16.558594 7.9375 16.78125 7.9375 17.054688 C 7.9375 17.332031 7.71875 17.550781 7.441406 17.550781 C 7.167969 17.550781 6.945312 17.332031 6.945312 17.054688 C 6.945312 16.78125 7.167969 16.558594 7.441406 16.558594 Z M 7.441406 16.558594 "/>
<path style=" stroke:none;fill-rule:nonzero;fill:rgb(47.058824%,56.470591%,61.176473%);fill-opacity:1;" d="M 7.441406 7.132812 C 6.890625 7.132812 6.449219 7.574219 6.449219 8.125 C 6.449219 8.675781 6.890625 9.117188 7.441406 9.117188 C 7.992188 9.117188 8.433594 8.675781 8.433594 8.125 C 8.433594 7.574219 7.992188 7.132812 7.441406 7.132812 Z M 7.441406 7.628906 C 7.71875 7.628906 7.9375 7.851562 7.9375 8.125 C 7.9375 8.402344 7.71875 8.621094 7.441406 8.621094 C 7.167969 8.621094 6.945312 8.402344 6.945312 8.125 C 6.945312 7.851562 7.167969 7.628906 7.441406 7.628906 Z M 7.441406 7.628906 "/>
<path style="fill:none;stroke-width:12;stroke-linecap:round;stroke-linejoin:round;stroke:rgb(95.686275%,26.274511%,21.176471%);stroke-opacity:1;stroke-miterlimit:4;" d="M 137.570196 -57.515039 L 158.734842 -36.350394 L 185.232311 -68.097362 " transform="matrix(0.0468795,0,0,0.0468795,0,10.079087)"/>
<path style="fill:none;stroke-width:12;stroke-linecap:round;stroke-linejoin:round;stroke:rgb(95.686275%,26.274511%,21.176471%);stroke-opacity:1;stroke-miterlimit:4;" d="M 137.570196 5.978898 L 158.734842 27.143543 L 185.232311 -4.603425 " transform="matrix(0.0468795,0,0,0.0468795,0,10.079087)"/>
</g>
</svg>
